assets/subscriptionNew/Vector (1).svg

<svg width="20" height="20" viewBox="0 0 20 20" fill="none" xmlns="http://www.w3.org/2000/svg">
<path d="M9.99306 0.0138798C15.5114 0.0138798 19.9861 4.48855 19.9861 10.0069C19.9861 15.5253 15.5114 20 9.99306 20C4.47467 20 0 15.5253 0 10.0069C0 4.48855 4.47467 0.0138798 9.99306 0.0138798ZM5.55864 9.44483L9.30604 13.1922C9.49618 13.3824 9.74462 13.4768 9.99306 13.4768C10.2415 13.4768 10.4899 13.3824 10.6801 13.1922L14.4275 9.44483C14.8064 9.06593 14.8064 8.44969 14.4275 8.07079C14.0486 7.69188 13.4323 7.69188 13.0534 8.07079L9.99306 11.1312L6.93269 8.07079C6.55378 7.69188 5.93754 7.69188 5.55864 8.07079C5.17974 8.44969 5.17974 9.06593 5.55864 9.44483Z" fill="#DCDCDC"/>
</svg>

<svg xmlns="http://www.w3.org/2000/svg" width="20" height="20" fill="none" xmlns:v="https://vecta.io/nano"><path d="M9.993.014c5.518 0 9.993 4.475 9.993 9.993S15.511 20 9.993 20 0 15.525 0 10.007 4.475.014 9.993.014zM5.559 9.445l3.747 3.747a.97.97 0 0 0 1.374 0l3.747-3.747c.379-.379.379-.995 0-1.374s-.995-.379-1.374 0l-3.06 3.06-3.06-3.06c-.379-.379-.995-.379-1.374 0s-.379.995 0 1.374z" fill="#dcdcdc"/></svg>
